weblate_web/static/img/icon-notifications.svg

<svg xmlns="http://www.w3.org/2000/svg" xmlns:svg="http://www.w3.org/2000/svg" id="svg4" width="45" height="43" version="1.1" viewBox="-1 -1 46.998 45"><metadata id="metadata10"/><path id="path2" fill="none" stroke="#1fa385" stroke-opacity="1" stroke-width="1" d="m 40.927514,34.809523 v 2.047619 H 4.070372 V 34.809523 L 8.16561,30.714285 V 18.428571 c 0,-6.347619 4.156667,-11.9376185 10.238095,-13.7395225 0,-0.204762 0,-0.389048 0,-0.59381 A 4.095238,4.095238 0 0 1 22.498943,4.9999998e-7 4.095238,4.095238 0 0 1 26.594181,4.0952385 c 0,0.204762 0,0.389048 0,0.59381 6.081428,1.801904 10.238095,7.3919035 10.238095,13.7395225 v 12.285714 l 4.095238,4.095238 m -14.333333,4.095238 a 4.095238,4.095238 0 0 1 -4.095238,4.095238 4.095238,4.095238 0 0 1 -4.095238,-4.095238 M 38.36799,2.4366675 35.460371,5.3442865 c 3.501429,3.460476 5.467143,8.1699985 5.467143,13.0842845 h 4.095238 c 0,-5.999524 -2.375238,-11.7738085 -6.654762,-15.9919035 M -0.024866,18.428571 h 4.095238 c 0,-4.914286 1.9657142,-9.6238085 5.467143,-13.0842845 L 6.6298957,2.4366675 C 2.350372,6.6547625 -0.024866,12.429047 -0.024866,18.428571 Z"/></svg>

<svg width="45" height="43" version="1.1" viewBox="-1 -1 46.998 45" xmlns="http://www.w3.org/2000/svg"><path d="m40.928 34.81v2.0476h-36.857v-2.0476l4.0952-4.0952v-12.286c0-6.3476 4.1567-11.938 10.238-13.74v-0.59381a4.0952 4.0952 0 0 1 4.0952-4.0952 4.0952 4.0952 0 0 1 4.0952 4.0952v0.59381c6.0814 1.8019 10.238 7.3919 10.238 13.74v12.286l4.0952 4.0952m-14.333 4.0952a4.0952 4.0952 0 0 1-4.0952 4.0952 4.0952 4.0952 0 0 1-4.0952-4.0952m19.964-36.468-2.9076 2.9076c3.5014 3.4605 5.4671 8.17 5.4671 13.084h4.0952c0-5.9995-2.3752-11.774-6.6548-15.992m-38.393 15.992h4.0952c0-4.9143 1.9657-9.6238 5.4671-13.084l-2.9076-2.9076c-4.2795 4.2181-6.6548 9.9924-6.6548 15.992z" fill="none" stroke="#1fa385"/></svg>
